X: 28250
T: Mrs. J. Forbes
R: reel
M: 4/4
K: Edorian
|:E2BA BEEF|D2AF ADDF|E2BA Bdef|1 dBAF E/E/EEF:|2 dBAF E/E/EBd||
|:efge BeBc|defe dAFA|efge BeBc|1 dBAF E/E/EBd:|2 dBAF E/E/EEF||

